src/modules/85-cv/assets/noChartData.svg

<svg fill="none" height="48" viewBox="0 0 49 48" width="49" xmlns="http://www.w3.org/2000/svg"><path d="m45.5 4.26316-18.5581 16.73684-10.7442-9.1579-12.6977 9.1579m42-16.73684v8.31574m0-8.31574-8.5116-1.26316" stroke="#b0b1c3" stroke-width="2"/><g fill="#b0b1c3"><path d="m3.5 33c0-1.1046.89543-2 2-2h4c1.1046 0 2 .8954 2 2v12h-8z"/><path d="m20.5 37c0-1.1046.8954-2 2-2h4c1.1046 0 2 .8954 2 2v8h-8z"/><path d="m37.5 25c0-1.1046.8954-2 2-2h4c1.1046 0 2 .8954 2 2v20h-8z"/></g></svg>

<svg width="49" height="48" viewBox="0 0 49 48" fill="none" xmlns="http://www.w3.org/2000/svg">
<path d="M45.5 4.26316L26.9419 21L16.1977 11.8421L3.5 21M45.5 4.26316V12.5789M45.5 4.26316L36.9884 3" stroke="#B0B1C3" stroke-width="2"/>
<path d="M3.5 33C3.5 31.8954 4.39543 31 5.5 31H9.5C10.6046 31 11.5 31.8954 11.5 33V45H3.5V33Z" fill="#B0B1C3"/>
<path d="M20.5 37C20.5 35.8954 21.3954 35 22.5 35H26.5C27.6046 35 28.5 35.8954 28.5 37V45H20.5V37Z" fill="#B0B1C3"/>
<path d="M37.5 25C37.5 23.8954 38.3954 23 39.5 23H43.5C44.6046 23 45.5 23.8954 45.5 25V45H37.5V25Z" fill="#B0B1C3"/>
</svg>
